favicon.svg

<?xml version="1.0" encoding="utf-8"?>
<!-- Generator: Adobe Illustrator 26.0.1, SVG Export Plug-In . SVG Version: 6.00 Build 0)  -->
<svg version="1.1" id="Camada_1" xmlns="http://www.w3.org/2000/svg" xmlns:xlink="http://www.w3.org/1999/xlink" x="0px" y="0px"
	 viewBox="0 0 128 132.7" style="enable-background:new 0 0 128 132.7;" xml:space="preserve">
<style type="text/css">
	.st0{fill:#939393;}
	.st1{stroke:#4A0FCE;stroke-width:4.1376;stroke-miterlimit:10;}
	.st2{fill:none;stroke:#4A0FCE;stroke-width:4.1376;stroke-miterlimit:10;}
</style>
<rect x="0.1" class="st0" width="128" height="132.7"/>
<path class="st1" d="M63.4,125.9l-29.6-30L2.7,82.7l8.7-31.5L2.6,4.9l39.7,29.5l45,0.1l38.4-30.1l-8.5,46.9l8.4,31.5L94.1,95.8
	L63.4,125.9z M3.6,82.4l30.8,13.1l0,0l29,29.4l30.1-29.6h0.1l31.1-12.9l-8.3-31.2l0,0L124.7,6l-37,29h-0.2H42.1L3.6,6.5l8.6,44.8
	L3.6,82.4z"/>
<path class="st2" d="M63.5,118.4l-12.2-43L12.9,51.5L42,35l9.9,40.5l0,0l11.5,23.7l12.7-23.7l0.2-0.1L86.7,35l29.5,15.7L77,75.6
	L63.5,118.4z M52.3,76.2l11.2,47.6l12.3-46.6l-12.3,23.4L52.3,76.2z M87.7,35.2L77.2,74.7l39-23.5L87.7,35.2z M12.4,51.2l38.4,22.5
	l-9-38.6L12.4,51.2z"/>
<polygon class="st1" points="123.8,82 62.3,44.1 3.5,81.2 3.5,80.4 62.3,43.4 124.6,81.2 "/>
<polygon class="st1" points="70.9,117.6 70.9,117.6 94.8,64.5 32.8,64 56.4,117.9 56.1,117.6 31.8,63.5 95.8,64 95.7,64.3 "/>
</svg>

<svg id="Camada_1" data-name="Camada 1" xmlns="http://www.w3.org/2000/svg" viewBox="0 0 128.93 133.12"><defs><style>.cls-1{fill:#4a0fce;}.cls-2{fill:none;stroke:#ccc;stroke-miterlimit:10;stroke-width:4px;}</style></defs><rect class="cls-1" x="0.12" y="0.42" width="128" height="132.7"/><path class="cls-2" d="M63.4,125.9l-29.6-30L2.7,82.7l8.7-31.5L2.6,4.9,42.3,34.4l45,.1L125.7,4.4l-8.5,46.9,8.4,31.5-31.5,13ZM3.6,82.4,34.4,95.5h0l29,29.4L93.5,95.3h.1l31.1-12.9-8.3-31.2h0L124.7,6l-37,29H42.1L3.6,6.5l8.6,44.8Z" transform="translate(0.32 0.42)"/><path class="cls-2" d="M63.5,118.4l-12.2-43L12.9,51.5,42,35l9.9,40.5h0L63.4,99.2,76.1,75.5l.2-.1L86.7,35l29.5,15.7L77,75.6ZM52.3,76.2l11.2,47.6L75.8,77.2,63.5,100.6Zm35.4-41L77.2,74.7l39-23.5Zm-75.3,16L50.8,73.7l-9-38.6Z" transform="translate(0.32 0.42)"/><polygon class="cls-2" points="124.12 82.42 62.62 44.52 3.82 81.62 3.82 80.82 62.62 43.82 124.92 81.62 124.12 82.42"/><polygon class="cls-2" points="71.22 118.02 71.22 118.02 95.12 64.92 33.12 64.42 56.72 118.32 56.42 118.02 32.12 63.92 96.12 64.42 96.02 64.72 71.22 118.02"/></svg>
